!!!COM: Beethoven, Ludwig van
!!!CDT: 1770///-1827///
!!!ODT: 1806///
!!!OTL: String Quartet No. 8 in E Minor, Op. 59, No. 2
!!!OPS: Op. 59
!!!ONM: No. 2
!!!OMV: Mvmt. 3
!!!OMD: Allegretto
!!!PDT: 1808///
!!!PPP: Vienna
!!!ODE: Dem Grafen Rasoumoffsky gewidmet
!!!ONB: Op. 59 are called the Rasumovsky Quartets
!!!MPD: 1806///
**kern	**dynam	**kern	**dynam	**kern	**dynam	**kern	**dynam
*staff4	*staff4	*staff3	*staff3	*staff2	*staff2	*staff1	*staff1
*Icello	*Icello	*Iviola	*Iviola	*Ivioln	*Ivioln	*Ivioln	*Ivioln
*>[I,A,A1,A,A2,B,B1,B,B2,C]	*>[I,A,A1,A,A2,B,B1,B,B2,C]	*>[I,A,A1,A,A2,B,B1,B,B2,C]	*>[I,A,A1,A,A2,B,B1,B,B2,C]	*>[I,A,A1,A,A2,B,B1,B,B2,C]	*>[I,A,A1,A,A2,B,B1,B,B2,C]	*>[I,A,A1,A,A2,B,B1,B,B2,C]	*>[I,A,A1,A,A2,B,B1,B,B2,C]
*>norep[I,A,A2,B,B2,C]	*>norep[I,A,A2,B,B2,C]	*>norep[I,A,A2,B,B2,C]	*>norep[I,A,A2,B,B2,C]	*>norep[I,A,A2,B,B2,C]	*>norep[I,A,A2,B,B2,C]	*>norep[I,A,A2,B,B2,C]	*>norep[I,A,A2,B,B2,C]
*>I	*>I	*>I	*>I	*>I	*>I	*>I	*>I
*clefF4	*clefF4	*clefC3	*clefC3	*clefG2	*clefG2	*clefG2	*clefG2
*k[f#]	*k[f#]	*k[f#]	*k[f#]	*k[f#]	*k[f#]	*k[f#]	*k[f#]
*e:	*e:	*e:	*e:	*e:	*e:	*e:	*e:
*M3/4	*M3/4	*M3/4	*M3/4	*M3/4	*M3/4	*M3/4	*M3/4
*MM100	*MM100	*MM100	*MM100	*MM100	*MM100	*MM100	*MM100
=1-	=1-	=1-	=1-	=1-	=1-	=1-	=1-
4EE/	pp	4G/	pp	4B/	pp	8e'/L	pp
.	.	.	.	.	.	8b'/J	.
4r	.	8r	.	8r	.	(4.ee\	.
.	.	8e\L	.	8g/L	.	.	.
4r	.	8e\J	.	8g/J	.	.	.
.	.	8r	.	8r	.	8gg\)	.
=2!|:	=2!|:	=2!|:	=2!|:	=2!|:	=2!|:	=2!|:	=2!|:
*>A	*>A	*>A	*>A	*>A	*>A	*>A	*>A
4BB/	.	4r	.	4r	.	8r	.
.	.	.	.	.	.	8ff#'\	.
4r	.	8r	.	8r	.	(4.dd#\	.
.	.	8d#\L	.	8f#/L	.	.	.
4r	.	8d#\J	.	8f#/J	.	.	.
.	.	8r	.	8r	.	8b\)	.
=3	=3	=3	=3	=3	=3	=3	=3
4BB/	.	4r	.	4r	.	8r	.
.	.	.	.	.	.	8b'\	.
4r	.	8r	.	8r	.	(4.cc\	.
.	.	8d#\L	.	8f#/L	.	.	.
4r	.	8d#\J	.	8f#/J	.	.	.
.	.	8r	.	8r	.	8a/)	.
=4	=4	=4	=4	=4	=4	=4	=4
4E\	.	4r	.	4r	.	8r	.
.	.	.	.	.	.	8a/	.
4r	.	8r	.	8r	.	4.f#/	.
.	.	8B/L	.	8e/L	.	.	.
4r	.	8B/J	.	8e/J	.	.	.
.	.	8r	.	8r	.	[8g/	.
=5	=5	=5	=5	=5	=5	=5	=5
4E\	.	4r	.	4r	.	8g/L]	.
.	.	.	.	.	.	8b'/J	.
4r	.	8r	.	8r	.	4.ee\	.
.	.	8e\L	.	8g/L	.	.	.
4r	.	8e\J	.	8g/J	.	.	.
.	.	8r	.	8r	.	[8gg\	.
=6	=6	=6	=6	=6	=6	=6	=6
4C#/	<	4r	.	4r	.	8gg\L]	<
.	.	.	.	.	.	8gg\J	.
4r	.	8r	.	8r	.	4.ccc#\	.
.	.	8e\L	<	8g/L	<	.	.
4r	.	8e\J	.	8g/J	.	.	.
.	.	8r	.	8r	.	[8eee\	.
=7	=7	=7	=7	=7	=7	=7	=7
*>A1	*>A1	*>A1	*>A1	*>A1	*>A1	*>A1	*>A1
4AA/	f	8r	.	8r	.	8eee\L]	.
.	.	8c#\L 8e\	f	8A/L 8g/	f	8eee'\J	.
4r	.	8c#\J 8e\	.	8A/J 8g/	.	4.ggg\	f
.	.	8r	.	8r	.	.	.
4r	.	4r	.	4r	.	.	.
.	.	.	.	.	.	[8cc#\	>
=8	=8	=8	=8	=8	=8	=8	=8
4D\	.	4r	.	4r	.	(4cc#\]	.
4r	p	4d'\	p	4A'/ 4f#'/	p	4dd\)	p
4BB/	.	4f#'\	.	4B'/ 4a'/	.	4dd#'\	.
=9	=9	=9	=9	=9	=9	=9	=9
4EE/	pp	4e\	pp	4B/ 4g/	pp	8ee'\L	pp
.	.	.	.	.	.	8b'\J	.
4r	.	8r	.	8r	.	(4.ee\	.
.	.	8e\L	.	8g/L	.	.	.
4r	.	8e\J	.	8g/J	.	.	.
.	.	8r	.	8r	.	8gg\)	.
=10:|!	=10:|!	=10:|!	=10:|!	=10:|!	=10:|!	=10:|!	=10:|!
*>A2	*>A2	*>A2	*>A2	*>A2	*>A2	*>A2	*>A2
4D\	.	4r	.	4r	.	(4cc#\	.
4r	p	4d\	p	4A/ 4f#/	p	4ddn\	p
4r	.	4r	.	[4d/	.	[4dd\)	.
=11	=11	=11	=11	=11	=11	=11	=11
4FF#/	.	4r	.	8d/L]	pp	8dd\L]	.
.	.	.	.	8d'/J	.	8dd'\J	pp
8r	pp	8r	.	(4.e-/	.	(4.ee-\	.
8F#'\	.	8A'/	pp	.	.	.	.
8F#'\	.	8A'/	.	.	.	.	.
8r	.	8r	.	8c/)	.	8ccn\)	.
=12!|:	=12!|:	=12!|:	=12!|:	=12!|:	=12!|:	=12!|:	=12!|:
*>B	*>B	*>B	*>B	*>B	*>B	*>B	*>B
4GG/	.	4r	.	8r	.	8r	.
.	.	.	.	8c'/	.	8cc'\	.
8r	.	8r	.	(4.A#/	.	(4.a#/	.
8G'\	.	8D/L	.	.	.	.	.
4G'\	.	8D/J	.	.	.	.	.
.	.	8r	.	8B/)	.	8b\)	.
=13	=13	=13	=13	=13	=13	=13	=13
4GG#/	.	4r	.	8r	.	8r	.
.	.	.	.	8en'/	.	8een'\	.
8r	.	8r	.	(4.fn/	.	(4.ffn\	.
8G#'\	.	8B/L	.	.	.	.	.
4G#'\	.	8B/J	.	.	.	.	.
.	.	8r	.	8d/)	.	8dd\)	.
=14	=14	=14	=14	=14	=14	=14	=14
4AA/	.	4r	.	8r	.	8r	.
.	.	.	.	8d'/	.	8dd'\	.
8r	.	8r	.	(4.B/	.	(4.b\	.
8A\L	.	8E/L	.	.	.	.	.
8A\J	.	8E/J	.	.	.	.	.
8r	.	8r	.	8c/)	.	8cc\)	.
=15	=15	=15	=15	=15	=15	=15	=15
4AA/	p	8r	.	4r	.	[2.ee\	p
.	.	8e\	p	.	.	.	.
8r	.	(4.a\	.	8r	.	.	.
8A\L	<	.	.	8c/L	p	.	.
8A\J	.	.	.	8c/J	<	.	.
8r	.	8cc\)	<	8r	.	.	.
=16	=16	=16	=16	=16	=16	=16	=16
4GG#/	.	8r	.	4r	.	2.ee\_	<
.	.	8cc\	.	.	.	.	.
8r	.	(4.dd\	.	8r	.	.	.
8G#\L	.	.	.	8B/L	.	.	.
8G#\J	.	.	.	8B/J	.	.	.
8r	.	8b\)	.	8r	.	.	.
=17	=17	=17	=17	=17	=17	=17	=17
4EE/	.	8r	.	4r	.	2.ee\_	.
.	.	8g#\	.	.	.	.	.
8r	.	(4.e\	.	8r	.	.	.
8E\L	.	.	.	8G#/L	.	.	.
8E\J	.	.	.	8G#/J	.	.	.
8r	.	8d\)	.	8r	.	.	.
=18	=18	=18	=18	=18	=18	=18	=18
4AA/	.	8r	.	8r	.	2ee\]	.
.	.	(8d\L	.	(8dd\L	.	.	.
8r	.	8B\	.	8b\	.	.	.
8AA/L	.	8c\	.	8cc\	.	.	.
8FF#/	.	8B-\	.	8b-\	.	4ee\	.
8FF#/J	.	8c\J)	.	8cc\J)	.	.	.
=19	=19	=19	=19	=19	=19	=19	=19
4FFn/	f	[2.C/ [2.c/	f	8a'/L	f	8ffn'\L	f
.	.	.	.	8c'/J	.	8cc'\J	.
8r	.	.	.	(4.fn/	.	(4.ffn\	.
8CC'/	.	.	.	.	.	.	.
4FFn'/	.	.	.	.	.	.	.
.	.	.	.	8a/)	.	8aa\)	.
=20	=20	=20	=20	=20	=20	=20	=20
4CC/	.	2.C/_ 2.c/_	.	8r	.	8r	.
.	.	.	.	8a'/	.	8aa'\	.
8r	.	.	.	(4.b-/	.	(4.bb-\	.
8CC/	.	.	.	.	.	.	.
4GG/	.	.	.	.	.	.	.
.	.	.	.	8g/)	.	8gg\)	.
=21	=21	=21	=21	=21	=21	=21	=21
4CC/	.	2.C/_ 2.c/_	.	8r	.	8r	.
.	.	.	.	8e/	.	8ee\	.
8r	.	.	.	(4.c/	.	(4.cc\	.
8CC/	.	.	.	.	.	.	.
4EE/	.	.	.	.	.	.	.
.	.	.	.	8B-/)	.	8b-\)	.
=22	=22	=22	=22	=22	=22	=22	=22
4CC/	.	2.C/_ 2.c/_	.	8r	.	8r	.
.	.	.	.	8B-/	.	8b-/	.
8r	.	.	.	(4.G#/	.	(4.g#/	.
8CC/	.	.	.	.	.	.	.
4FFn/	.	.	.	.	.	.	.
.	.	.	.	8G#/)	.	8g#/)	.
=23	=23	=23	=23	=23	=23	=23	=23
8r	ff	8C/L] 8c/]	.	4.A/ 4.fn/	ff	4.c/ 4.a/	ff
8CC'/	.	8C'/J	ff	.	.	.	.
(4.FFn/	.	(4.Fn/	.	.	.	.	.
.	.	.	.	8A'/ 8f'/	.	8c'/ 8a'/	.
.	.	.	.	4A'/ 4f'/	.	4c'/ 4a'/	.
8AA/)	.	8A/)	.	.	.	.	.
=24	=24	=24	=24	=24	=24	=24	=24
8r	.	8r	.	4.A/ 4.fn/	.	4.c/ 4.a/	.
8CC'/	.	8C'/	.	.	.	.	.
(4.FFn/	.	(4.Fn/	.	.	.	.	.
.	.	.	.	8A'/ 8f'/	.	8c'/ 8a'/	.
.	.	.	.	4A'/ 4f'/	.	4c'/ 4a'/	.
8AA/)	.	8A/)	.	.	.	.	.
=25	=25	=25	=25	=25	=25	=25	=25
8r	.	8r	.	4.A/ 4.fn/	.	4.c/ 4.a/	.
8CC'/	.	8C'/	.	.	.	.	.
(4.FFn/	.	(4.Fn/	.	.	.	.	.
.	.	.	.	8A'/ 8f'/	.	8c'/ 8a'/	.
.	.	.	.	4A'/ 4f'/	.	4c'/ 4a'/	.
8AA/)	.	8A/)	.	.	.	.	.
=26	=26	=26	=26	=26	=26	=26	=26
[2.BB/	ff	[2.F#/ [2.A/	ff	2.d#/	ff	[2.c/ [2.a/	ff
=27	=27	=27	=27	=27	=27	=27	=27
4BB/]	>	4F#/] 4A/]	>	8e/L	>	8c\L] 8a\]	.
.	.	.	.	8cc/J	p	8ccc\J	p
8r	p	8r	.	(4.b\	.	(4.bb\	.
8d#\L	.	8f#\L	.	.	.	.	.
8d#\J	.	8f#\J	.	.	.	.	.
8r	.	8r	.	[8a/)	.	[8aa\)	.
=28	=28	=28	=28	=28	=28	=28	=28
4E\	.	4r	.	8a/L]	.	8aa\L]	.
.	.	.	.	8a'/J	.	8aa'\J	.
8r	.	8r	.	(4.a/	.	(4.aa\	.
8e\L	.	8g\L	.	.	.	.	.
8e\J	.	8g\J	.	.	.	.	.
8r	.	8r	.	[8e/)	.	[8ee\)	.
=29	=29	=29	=29	=29	=29	=29	=29
4B\	.	4r	.	8e/L]	.	8ee\L]	.
.	.	.	.	8e'/J	.	8ee'\J	.
8r	.	8r	.	(4.d#/	.	(4.dd#\	.
8f#\L	.	8a\L	.	.	.	.	.
8f#\J	.	8a\J	.	.	.	.	.
8r	.	8r	.	[8f#/)	.	[8ff#\)	.
=30	=30	=30	=30	=30	=30	=30	=30
4E\	.	4g\	.	(8f#/L]	<	(8ff#\L]	.
.	.	.	.	8d#/J	.	8dd#\J	<
4r	<	4r	<	4e/)	.	4ee\)	.
[4CC/	.	[4C/ [4c/	.	(4b-\ 4gg\	.	(4eee\	.
=31	=31	=31	=31	=31	=31	=31	=31
8CC/L]	ff	8C/L] 8c/]	ff	4.a\) 4.ffn\	ff	4.fffn\)	ff
8CC/J	.	8C/J	.	.	.	.	.
(4.FFn/	.	(4.Fn/	.	.	.	.	.
.	.	.	.	8a'\ 8ff'\	.	8cc'\ 8aa'\	.
.	.	.	.	4a'\ 4ff'\	.	4cc'\ 4aa'\	.
8AA/)	.	8A/)	.	.	.	.	.
=32	=32	=32	=32	=32	=32	=32	=32
8r	.	8r	.	4.a\ 4.ffn\	.	4.cc\ 4.aa\	.
8CC/	.	8C/	.	.	.	.	.
(4.FFn/	.	(4.Fn/	.	.	.	.	.
.	.	.	.	8a'\ 8ff'\	.	8cc'\ 8aa'\	.
.	.	.	.	4a'\ 4ff'\	.	4cc'\ 4aa'\	.
8AA/)	.	8A/)	.	.	.	.	.
=33	=33	=33	=33	=33	=33	=33	=33
8r	.	8r	.	4.a\ 4.ffn\	.	4.cc\ 4.aa\	.
8CC/	.	8C/	.	.	.	.	.
(4.FFn/	.	(4.Fn/	.	.	.	.	.
.	.	.	.	8a'\ 8ff'\	.	8cc'\ 8aa'\	.
.	.	.	.	4a'\ 4ff'\	.	4cc'\ 4aa'\	.
8AA/)	.	8A/)	.	.	.	.	.
=34	=34	=34	=34	=34	=34	=34	=34
[2.BB/	ff	[2.F#/ [2.A/	ff	[2.f#/ [2.dd#/	ff	[2.cc\ [2.aa\	ff
=35	=35	=35	=35	=35	=35	=35	=35
4BB/]	>	4F#/] 4A/]	>	4f#/] 4dd#/]	>	8cc\L] 8aa\]	>
.	.	.	.	.	.	8ccc\J	p
8r	p	8r	p	8r	p	(4.bb\	.
8d#\L	.	8f#\L	.	8b\L	.	.	.
8d#\J	.	8f#\J	.	8b\J	.	.	.
8r	.	8r	.	8r	.	[8aa\)	.
=36	=36	=36	=36	=36	=36	=36	=36
4E\	.	4r	.	4r	.	8aa\L]	.
.	.	.	.	.	.	8aa\J	.
8r	.	8r	.	8r	.	(4.gg\	.
8e\L	.	8g\L	.	8b\L	.	.	.
8e\J	.	8g\J	.	8b\J	.	.	.
8r	.	8r	.	8r	.	[8ee\)	.
=37	=37	=37	=37	=37	=37	=37	=37
4B\	.	4r	.	4r	.	8ee\L]	.
.	.	.	.	.	.	8ee\J	.
8r	.	8r	.	8r	.	(4.dd#\	.
8B\L	.	8a\L	.	8b\L	.	.	.
8B\J	.	8a\J	.	8b\J	.	.	.
8r	.	8r	.	8r	.	8ff#\)	.
=38	=38	=38	=38	=38	=38	=38	=38
*clefC4	*clefG2	*	*	*	*	*	*
2.e\	.	4E/	.	4g/ 4b/	.	8ee'\L	.
.	.	.	.	.	.	8bb'\J	pp
.	.	8r	pp	8r	pp	(4.eee\	.
.	.	8e\L	.	8b\L	.	.	.
.	.	8e\J	.	8b\J	.	.	.
.	.	8r	.	8r	.	[8ggg\)	.
=39	=39	=39	=39	=39	=39	=39	=39
[2.f#\	pp	4d#\	.	4b\	.	8ggg\L]	.
.	.	.	.	.	.	8fff#\J	.
.	.	8r	.	8r	.	(4.ddd#\	.
.	.	8d#\L	.	8b\L	.	.	.
.	.	8d#\J	.	8b\J	.	.	.
.	.	8r	.	8r	.	[8bb\)	.
=40	=40	=40	=40	=40	=40	=40	=40
2.f#\]	.	4d#\	.	4b\	.	8bb\L]	.
.	.	.	.	.	.	8bb\J	.
.	.	8r	.	8r	.	(4.ccc\	.
.	.	8d#\L	.	8b\L	.	.	.
.	.	8d#\J	.	8b\J	.	.	.
.	.	8r	.	8r	.	[8aa\)	.
=41	=41	=41	=41	=41	=41	=41	=41
(2.g\	.	4e\	.	4b\	.	8aa\L]	.
.	.	.	.	.	.	(8aa\J	.
.	.	8r	.	8r	.	4.ff#\	.
.	.	8e\L	.	8b\L	.	.	.
.	.	8e\J	.	8b\J	.	.	.
.	.	8r	.	8r	.	[8gg\)	.
=42	=42	=42	=42	=42	=42	=42	=42
2.a\	.	4A/	.	4cc\	.	8gg\L]	.
.	.	.	.	.	.	(8gg\J	.
.	.	8r	.	8r	.	4.ee\	.
.	.	8A/L	.	8cc\L	.	.	.
.	.	8A/J	.	8cc\J	.	.	.
.	.	8r	.	8r	.	[8ffn\)	.
=43	=43	=43	=43	=43	=43	=43	=43
2.b\	.	4B/	.	4g/	.	8ff\L]	.
.	.	.	.	.	.	(8ffn\J	.
.	.	8r	.	8r	.	4.dd#\	.
.	.	8B/L	.	8g/L	.	.	.
.	.	8B/J	.	8g/J	.	.	.
.	.	8r	.	8r	.	[8ee\)	.
=44	=44	=44	=44	=44	=44	=44	=44
2.B\	.	4B/	.	4f#/ 4a/	.	8ee\L]	.
.	.	.	.	.	.	(8ee\J	.
.	.	8r	.	8r	.	4.cc#\	.
.	.	8B/L	.	8f#/L 8a/	.	.	.
.	.	8B/J	.	8f#/J 8a/	.	.	.
.	.	8r	.	8r	.	8dd#\)	.
=45	=45	=45	=45	=45	=45	=45	=45
(2e\)	.	4E/	.	8e'/L	.	4ee\	.
.	.	.	.	8b'/J	.	.	.
.	.	8r	.	(4.e/	.	4r	.
.	.	8E/L 8G/	.	.	.	.	.
4f#\)	.	8E/J 8A/	.	.	.	4r	.
.	.	8r	.	8d#/)	.	.	.
=46	=46	=46	=46	=46	=46	=46	=46
(2f#\	.	4E/ 4A/	.	2.r	.	8r	.
.	.	.	.	.	.	8cccn'\	.
.	.	8r	.	.	.	(4.dd#\	.
.	.	8E/L 8A/	.	.	.	.	.
4e\)	.	8E/J 8G/	.	.	.	.	.
.	.	8r	.	.	.	8ee\)	.
=47	=47	=47	=47	=47	=47	=47	=47
(2e\	.	4E/ 4G/	.	8r	.	2.r	.
.	.	.	.	8b'\	<	.	.
.	.	8r	<	(4.e/	.	.	.
.	.	8E/L 8G/	.	.	.	.	.
4f#\)	<	8E/J 8A/	.	.	.	.	.
.	.	8r	.	8d#/)	.	.	.
=48	=48	=48	=48	=48	=48	=48	=48
(2f#\	.	4E/ 4A/	.	2.r	.	8r	.
.	.	.	.	.	.	8ccc'\	<
.	.	8r	.	.	.	(4.dd#\	.
.	.	8E/L 8A/	.	.	.	.	.
4e\)	.	8E/J 8G/	.	.	.	.	.
.	.	8r	.	.	.	8ee\)	.
=49	=49	=49	=49	=49	=49	=49	=49
(2f#\	.	4E/ 4A/	.	2.r	.	8r	.
.	.	.	.	.	.	8ccc'\	.
.	.	8r	.	.	.	(4.dd#\	.
.	.	8E/L 8A/	.	.	.	.	.
[4e\)	.	8E/J 8G/	.	.	.	.	.
.	.	8r	.	.	.	[8ee\)	.
=50	=50	=50	=50	=50	=50	=50	=50
4e\]	.	4r	.	4r	.	8ee\L]	.
.	.	.	.	.	.	8ccc\J	.
[2f#\	f	[2B/	f	[2a/	f	[2dd#\	f
=51	=51	=51	=51	=51	=51	=51	=51
(2f#\]	.	(2B/]	>	(2a/]	.	(2dd#\]	>
4e\)	>	4E/)	.	4g/)	>	4ee\)	.
=52	=52	=52	=52	=52	=52	=52	=52
*>B1	*>B1	*>B1	*>B1	*>B1	*>B1	*>B1	*>B1
4e\	.	4E/	.	4g/	.	4ee\	.
4r	p	4r	p	4r	p	4r	p
4r	.	4r	.	4r	.	4r	.
=53	=53	=53	=53	=53	=53	=53	=53
*clefF4	*clefF4	*	*	*	*	*	*
4BB/	.	4B/	.	4d#/	.	4f#/	.
4r	.	4r	.	4r	.	4r	.
4r	.	4r	.	4r	.	4r	.
=54	=54	=54	=54	=54	=54	=54	=54
4EE/	.	4E/	.	4e/	.	4e/	.
4EE/	.	4G/	.	4r	.	4r	.
4EE/	.	4G/	.	[4e/	.	[4ee\	.
=55	=55	=55	=55	=55	=55	=55	=55
4FF#/	pp	4A/	pp	8e/L]	pp	8ee\L]	pp
.	.	.	.	8dn'/J	.	8dd'\J	.
8r	.	8r	.	(4.e-/	.	(4.ee-\	.
8F#\L	.	8A/L	.	.	.	.	.
8F#\J	.	8A/J	.	.	.	.	.
8r	.	8r	.	8c/)	.	8cc\)	.
=56:|!	=56:|!	=56:|!	=56:|!	=56:|!	=56:|!	=56:|!	=56:|!
*>B2	*>B2	*>B2	*>B2	*>B2	*>B2	*>B2	*>B2
*clefC4	*clefG2	*	*	*	*	*	*
4e\	.	4E/	p	4g/	.	4een\	.
4r	p	4r	.	4r	p	4r	p
4r	.	4r	.	4r	.	4r	.
=57	=57	=57	=57	=57	=57	=57	=57
*clefF4	*clefF4	*	*	*	*	*	*
4BB/	.	4B/	.	4d#/	.	4f#/	.
4r	.	4r	.	4r	.	4r	.
4r	.	4r	.	4r	.	4r	.
=58	=58	=58	=58	=58	=58	=58	=58
4EE/	.	4E/	.	4e/	.	4e/	.
=	=	=	=	=	=	=	=
*>C	*>C	*>C	*>C	*>C	*>C	*>C	*>C
*k[f#c#g#d#]	*k[f#c#g#d#]	*k[f#c#g#d#]	*k[f#c#g#d#]	*k[f#c#g#d#]	*k[f#c#g#d#]	*k[f#c#g#d#]	*k[f#c#g#d#]
4r	.	8e'\	p	(12g#/L	p	4r	.
.	.	.	.	12f#/	.	.	.
.	.	8r	.	.	.	.	.
.	.	.	.	12e/J	.	.	.
4r	.	8B'/	.	12d#/L	.	4r	.
.	.	.	.	12c#/	.	.	.
.	.	8r	.	.	.	.	.
.	.	.	.	12d#/J)	.	.	.
=59	=59	=59	=59	=59	=59	=59	=59
2.r	.	(8e\L	.	(12e/L	.	2.r	.
.	.	.	.	12d#/	.	.	.
.	.	8f#\J)	.	.	.	.	.
.	.	.	.	12c#/J)	.	.	.
.	.	8g#'\	.	12B/L	.	.	.
.	.	.	.	12B/	.	.	.
.	.	8r	.	.	.	.	.
.	.	.	.	12B/J	.	.	.
.	.	8g#'\	.	(12B/L	.	.	.
.	.	.	.	12c#/	.	.	.
.	.	8r	.	.	.	.	.
.	.	.	.	12d#/J)	.	.	.
=60	=60	=60	=60	=60	=60	=60	=60
2.r	.	(8g#\L	.	(12e/L	.	2.r	.
.	.	.	.	12d#/	.	.	.
.	.	8b\J)	.	.	.	.	.
.	.	.	.	12e/J	.	.	.
.	.	8a'\	.	12f#/L	.	.	.
.	.	.	.	12e/	.	.	.
.	.	8r	.	.	.	.	.
.	.	.	.	12f#/J	.	.	.
.	.	8g#'\	.	12g#/L	.	.	.
.	.	.	.	12f#/	.	.	.
.	.	8r	.	.	.	.	.
.	.	.	.	12g#/J)	.	.	.
=61	=61	=61	=61	=61	=61	=61	=61
2.r	.	8f#'\	.	(12a/L	<	2.r	.
.	.	.	.	12b/	.	.	.
.	.	8r	<	.	.	.	.
.	.	.	.	12a/J	.	.	.
.	.	8e'\	.	12g#/L	.	.	.
.	.	.	.	12f#/	.	.	.
.	.	8r	.	.	.	.	.
.	.	.	.	12e/J	.	.	.
.	.	8f#'\	.	12d#/L	.	.	.
.	.	.	.	12c#/	.	.	.
.	.	8r	.	.	.	.	.
.	.	.	.	12B/J)	.	.	.
=62	=62	=62	=62	=62	=62	=62	=62
2.r	.	(2g#\	.	(12e/L	.	2.r	.
.	.	.	.	12f#/	.	.	.
.	.	.	.	12g#/J	.	.	.
.	.	.	.	12a/L	.	.	.
.	.	.	.	12b/	.	.	.
.	.	.	.	12cc#/J	.	.	.
.	.	4e\)	.	12b/L	.	.	.
.	.	.	.	12cc#/	.	.	.
.	.	.	.	12b/J)	.	.	.
=63	=63	=63	=63	=63	=63	=63	=63
2.r	.	(2f#\	.	(12a/L	.	2.r	.
.	.	.	.	12b/	.	.	.
.	.	.	.	12a/J	.	.	.
.	.	.	.	12g#/L	>	.	.
.	.	.	.	12f#/	.	.	.
.	.	.	.	12e/J	.	.	.
.	.	8g#\L	>	12d#/L	.	.	.
.	.	.	.	12c#/	.	.	.
.	.	8f#\J)	.	.	.	.	.
.	.	.	.	12B/J)	.	.	.
=64	=64	=64	=64	=64	=64	=64	=64
4r	.	4e\	.	4e/	.	2.r	.
(12D#/L	.	4r	p	8b'/	p	.	.
12C#/	p	.	.	.	.	.	.
.	.	.	.	8r	.	.	.
12BB/J	.	.	.	.	.	.	.
12AA#/L	.	(4e\	.	8f#'/	.	.	.
12GG#/	.	.	.	.	.	.	.
.	.	.	.	8r	.	.	.
12AA#/J)	.	.	.	.	.	.	.
=65	=65	=65	=65	=65	=65	=65	=65
(12BB/L	.	8d#\)	.	(8b\L	.	2.r	.
12AA#/	.	.	.	.	.	.	.
.	.	8r	.	8cc#\J)	.	.	.
12GG#/J)	.	.	.	.	.	.	.
12FF#/L	.	8B/	.	8dd#'\	.	.	.
12FF#/	.	.	.	.	.	.	.
.	.	8r	.	8r	.	.	.
12FF#/J	.	.	.	.	.	.	.
(12FF#/L	.	[4F#/	.	8dd#'\	.	.	.
12GG#/	.	.	.	.	.	.	.
.	.	.	.	8r	.	.	.
12AA#/J)	.	.	.	.	.	.	.
=66	=66	=66	=66	=66	=66	=66	=66
(12BB/L	.	8F#/]	.	(8dd#\L	.	2.r	.
12AA#/	.	.	.	.	.	.	.
.	.	8r	.	8ff#\J)	.	.	.
12BB/J	.	.	.	.	.	.	.
12C#/L	.	8f#\	.	8ee'\	.	.	.
12BB/	.	.	.	.	.	.	.
.	.	8r	.	8r	.	.	.
12C#/J	.	.	.	.	.	.	.
12D#/L	.	[4f#\	.	8dd#'\	.	.	.
12C#/	.	.	.	.	.	.	.
.	.	.	.	8r	.	.	.
12D#/J)	.	.	.	.	.	.	.
=67	=67	=67	=67	=67	=67	=67	=67
(12E\L	<	8f#\]	<	8cc#'\	.	2.r	.
12F#\	.	.	.	.	.	.	.
.	.	8r	.	8r	<	.	.
12E\J	.	.	.	.	.	.	.
12D#\L	.	8F#/	.	8b'\	.	.	.
12C#\	.	.	.	.	.	.	.
.	.	8r	.	8r	.	.	.
12BB\J	.	.	.	.	.	.	.
12AA#/L	.	[4f#\	.	8cc#'\	.	.	.
12GG#/	.	.	.	.	.	.	.
.	.	.	.	8r	.	.	.
12FF#/J)	.	.	.	.	.	.	.
=68	=68	=68	=68	=68	=68	=68	=68
(12BB/L	.	4f#\]	.	(2dd#\	.	2.r	.
12C#/	.	.	.	.	.	.	.
12D#/J	.	.	.	.	.	.	.
12E\L	.	4B/	.	.	.	.	.
12F#\	.	.	.	.	.	.	.
12G#\J	.	.	.	.	.	.	.
12F#\L	.	[4b\	.	4b\)	.	.	.
12G#\	.	.	.	.	.	.	.
12F#\J)	.	.	.	.	.	.	.
=69	=69	=69	=69	=69	=69	=69	=69
(12E#\L	.	4b\]	.	(2cc#\	.	2.r	.
12F#\	>	.	.	.	.	.	.
12E#\J	.	.	.	.	.	.	.
12F#\L	.	4a\	>	.	.	.	.
12G#\	.	.	.	.	.	.	.
12F#\J	.	.	.	.	.	.	.
12En\L	.	[4a\	.	8dd#\L	>	.	.
12F#\	.	.	.	.	.	.	.
.	.	.	.	8cc#\J)	.	.	.
12E\J)	.	.	.	.	.	.	.
=70	=70	=70	=70	=70	=70	=70	=70
(4D#\	p	4a\]	.	4b\	p	4r	.
8E\)	.	4g#\	p	4r	.	(12gg#\L	.
.	.	.	.	.	.	12ff#\	p
8r	.	.	.	.	.	.	.
.	.	.	.	.	.	12ee\J	.
8BB'/	.	4r	.	(4a/	.	12dd#\L	.
.	.	.	.	.	.	12cc#\	.
8r	.	.	.	.	.	.	.
.	.	.	.	.	.	12dd#\J)	.
=71	=71	=71	=71	=71	=71	=71	=71
(8E\L	.	2.r	.	8g#/)	.	(12ee\L	.
.	.	.	.	.	.	12dd#\	.
8F#\J)	.	.	.	8r	.	.	.
.	.	.	.	.	.	12cc#\J)	.
8G#'\	.	.	.	8e/	.	12b\L	.
.	.	.	.	.	.	12b\	.
8r	.	.	.	8r	.	.	.
.	.	.	.	.	.	12b\J	.
8G#'\	.	.	.	[4B/	.	(12b\L	.
.	.	.	.	.	.	12cc#\	.
8r	.	.	.	.	.	.	.
.	.	.	.	.	.	12dd#\J)	.
=72	=72	=72	=72	=72	=72	=72	=72
(8G#\L	.	2.r	.	4B/]	.	(12ee\L	.
.	.	.	.	.	.	12dd#\	.
8B\J)	.	.	.	.	.	.	.
.	.	.	.	.	.	12ee\J	.
8A'\	.	.	.	4b\	.	12ff#\L	.
.	.	.	.	.	.	12ee\	.
8r	.	.	.	.	.	.	.
.	.	.	.	.	.	12ff#\J	.
8G#'\	.	.	.	[4b\	.	12gg#\L	.
.	.	.	.	.	.	12ff#\	.
8r	.	.	.	.	.	.	.
.	.	.	.	.	.	12gg#\J)	.
=73	=73	=73	=73	=73	=73	=73	=73
8F#'\	.	2.r	.	4b\]	<	(12aa\L	<
.	.	.	.	.	.	12bb\	.
8r	.	.	.	.	.	.	.
.	.	.	.	.	.	12aa\J	.
8E'\	.	.	.	4B/	.	12gg#\L	.
.	.	.	.	.	.	12ff#\	.
8r	.	.	.	.	.	.	.
.	.	.	.	.	.	12ee\J	.
8F#'\	.	.	.	4B/	.	12dd#\L	.
.	.	.	.	.	.	12cc#\	.
8r	.	.	.	.	.	.	.
.	.	.	.	.	.	12b\J)	.
=74	=74	=74	=74	=74	=74	=74	=74
(2G#\	.	4r	.	4B/	.	(12ee\L	.
.	.	.	.	.	.	12ff#\	.
.	.	.	.	.	.	12gg#\J	.
.	.	4r	.	(4b/	.	12aa\L	.
.	.	.	.	.	.	12bb\	.
.	.	.	.	.	.	12ccc#\J	.
4E\)	.	4B/	.	4g#/)	.	12bb\L	.
.	.	.	.	.	.	12ccc#\	.
.	.	.	.	.	.	12bb\J)	.
=75	=75	=75	=75	=75	=75	=75	=75
(2F#\	.	[2.B/	p	(2a/	.	(12aa\L	.
.	.	.	.	.	.	12bb\	.
.	.	.	.	.	.	12aa\J	>
.	.	.	.	.	.	12gg#\L	.
.	.	.	.	.	.	12ff#\	.
.	.	.	.	.	.	12ee\J	.
8G#\L	>	.	.	8b/L	>	12dd#\L	.
.	.	.	.	.	.	12cc#\	.
8F#\J)	.	.	.	8a/J)	.	.	.
.	.	.	.	.	.	12b\J)	.
=76	=76	=76	=76	=76	=76	=76	=76
4E\	p	4B/]	>	4g#/	p	4ee\	p
4r	.	(12d#/L	.	4r	.	8bb\	.
.	.	12c#/	.	.	.	.	.
.	.	.	.	.	.	8r	.
.	.	12B/J	.	.	.	.	.
(4E\	.	12A#/L	.	4r	.	8ff#\	.
.	.	12G#/	.	.	.	.	.
.	.	.	.	.	.	8r	.
.	.	12A#/J)	.	.	.	.	.
=77	=77	=77	=77	=77	=77	=77	=77
8D#\)	.	(12B/L	.	2.r	.	(8bb\L	.
.	.	12A#/	.	.	.	.	.
8r	.	.	.	.	.	8ccc#\J)	.
.	.	12G#/J)	.	.	.	.	.
8BB/	.	12F#/L	.	.	.	8ddd#\	.
.	.	12F#/	.	.	.	.	.
8r	.	.	.	.	.	8r	.
.	.	12F#/J	.	.	.	.	.
[4FF#/	.	(12F#/L	.	.	.	8ddd#\	.
.	.	12G#/	.	.	.	.	.
.	.	.	.	.	.	8r	.
.	.	12A#/J)	.	.	.	.	.
=78	=78	=78	=78	=78	=78	=78	=78
4FF#/]	.	(12B/L	.	2.r	.	(8ddd#\L	.
.	.	12A#/	.	.	.	.	.
.	.	.	.	.	.	8fff#\J)	.
.	.	12B/J	.	.	.	.	.
4F#\	.	12c#/L	.	.	.	8eee\	.
.	.	12B/	.	.	.	.	.
.	.	.	.	.	.	8r	.
.	.	12c#/J	.	.	.	.	.
[4F#\	.	12d#/L	.	.	.	8ddd#\	.
.	.	12c#/	.	.	.	.	.
.	.	.	.	.	.	8r	.
.	.	12d#/J)	.	.	.	.	.
=79	=79	=79	=79	=79	=79	=79	=79
4F#\]	.	(12e\L	<	2.r	.	8ccc#\	<
.	.	12f#\	.	.	.	.	.
.	.	.	.	.	.	8r	.
.	.	12e\J	.	.	.	.	.
(4F#\	<	12d#\L	.	.	.	8bb\	.
.	.	12c#\	.	.	.	.	.
.	.	.	.	.	.	8r	.
.	.	12B\J	.	.	.	.	.
4E\)	.	12A#/L	.	.	.	8ccc#\	.
.	.	12G#/	.	.	.	.	.
.	.	.	.	.	.	8r	.
.	.	12F#/J)	.	.	.	.	.
=80	=80	=80	=80	=80	=80	=80	=80
4D#\	.	(12B\L	.	2.r	.	(2ddd#\	.
.	.	12c#\	.	.	.	.	.
.	.	12d#\J	.	.	.	.	.
4BB/	.	12e\L	.	.	.	.	.
.	.	12f#\	.	.	.	.	.
.	.	12g#\J	.	.	.	.	.
[4B\	.	12f#\L	.	.	.	4bb\)	.
.	.	12g#\	.	.	.	.	.
.	.	12f#\J)	.	.	.	.	.
=81	=81	=81	=81	=81	=81	=81	=81
4B\]	.	(12e#\L	.	2.r	.	(2ccc#\	p
.	.	12f#\	.	.	.	.	.
.	.	12e#\J	.	.	.	.	.
[2A\	.	12f#\L	.	.	.	.	.
.	.	12g#\	.	.	.	.	.
.	.	12f#\J	.	.	.	.	.
.	.	12en\L	.	.	.	8ddd#\L	.
.	.	12f#\	.	.	.	.	.
.	.	.	.	.	.	8ccc#\J)	.
.	.	12e\J)	.	.	.	.	.
=82	=82	=82	=82	=82	=82	=82	=82
4A\]	.	(12d#\L	<	2.r	.	(2bb\	.
.	.	12e\	.	.	.	.	.
.	.	12d#\J)	.	.	.	.	.
(12G#\L	<	4e\	.	.	.	.	.
12A\	.	.	.	.	.	.	.
12G#\J	.	.	.	.	.	.	.
12E\L	.	[4g#\	.	.	.	8ccc#\L	<
12F#\	.	.	.	.	.	.	.
.	.	.	.	.	.	8bb\J)	.
12E\J)	.	.	.	.	.	.	.
=83	=83	=83	=83	=83	=83	=83	=83
(12C#/L	.	(4g#\]	.	4r	.	(2aa\	.
12D#/	.	.	.	.	.	.	.
12C#/J	.	.	.	.	.	.	.
12D#/L	.	4f#\	.	4r	.	.	.
12E/	.	.	.	.	.	.	.
12D#/J	.	.	.	.	.	.	.
12C#/L	.	[4d#\)	.	[4ff#\	mp	8bb\L	.
12D#/	.	.	.	.	.	.	.
.	.	.	.	.	.	8aa\J)	.
12C#/J)	.	.	.	.	.	.	.
=84	=84	=84	=84	=84	=84	=84	=84
(12BB#/L	.	4d#\]	.	4ff#\]	<	(2gg#\	.
12C#/	.	.	.	.	.	.	.
12BB#/J	.	.	.	.	.	.	.
12C#/L	.	[2c#\	.	[2ee\	.	.	.
12D#/	.	.	.	.	.	.	.
12C#/J	.	.	.	.	.	.	.
12BBn/L	.	.	.	.	.	8aa\L	.
12C#/	.	.	.	.	.	.	.
.	.	.	.	.	.	8gg#\J)	.
12BB/J)	.	.	.	.	.	.	.
=85	=85	=85	=85	=85	=85	=85	=85
(12AA/L	f	4c#\]	f	4ee\]	f	2.ff#\	f
12BB/	.	.	.	.	.	.	.
12AA/J	.	.	.	.	.	.	.
12FF#/L	.	2A/	.	(4e/	.	.	.
12GG#/	.	.	.	.	.	.	.
12AA/J	.	.	.	.	.	.	.
12BB/L	.	.	.	4d#/)	.	.	.
12AA#/	.	.	.	.	.	.	.
12BB/J)	.	.	.	.	.	.	.
=86	=86	=86	=86	=86	=86	=86	=86
4EE/	.	8G#'/	.	8e'/	.	4ee\	.
.	.	8r	.	8ee'\L	.	.	.
4r	.	8e'\	.	8dd#'\	.	4r	.
.	.	8r	p	8cc#'\	.	.	.
4r	.	8B'/	.	8b'\	.	4r	.
.	.	8r	.	8a'\J	.	.	.
=87	=87	=87	=87	=87	=87	=87	=87
2.r	.	(8e\L	.	8g#'/L	.	2.r	.
.	.	8f#\J)	.	8cc#'/	.	.	.
.	.	8g#'\	.	8b'/	.	.	.
.	.	8r	.	8a'/	.	.	.
.	.	8g#'\	.	8g#'/	.	.	.
.	.	8r	.	8f#'/J	.	.	.
=88	=88	=88	=88	=88	=88	=88	=88
2.r	.	(8g#\L	.	8e'/L	.	2.r	.
.	.	8b\J)	.	8B'/	.	.	.
.	.	8a'\	.	8d#'/	.	.	.
.	.	8r	.	8B'/	.	.	.
.	.	8g#'\	.	8e'/	.	.	.
.	.	8r	.	8B'/J	.	.	.
=89	=89	=89	=89	=89	=89	=89	=89
2.r	.	8f#'\	.	8A'/L	.	2.r	.
.	.	8r	.	8B'/	.	.	.
.	.	8e'\	.	8G#'/	.	.	.
.	.	8r	.	8B'/	.	.	.
.	.	8f#'\	.	8d#'/	.	.	.
.	.	8r	.	8B'/J	.	.	.
=90	=90	=90	=90	=90	=90	=90	=90
2.r	.	(2g#\	.	8e'/L	.	2.r	.
.	.	.	.	8f#'/	.	.	.
.	.	.	.	8g#'/	.	.	.
.	.	.	.	8a'/	.	.	.
.	.	4e\)	.	8b'/	.	.	.
.	.	.	.	8cc#'/J	.	.	.
=91	=91	=91	=91	=91	=91	=91	=91
2.r	.	(2f#\	.	8a'\L	.	2.r	.
.	.	.	.	8g#'\	.	.	.
.	.	.	.	8a'\	.	.	.
.	.	.	.	8b'\	.	.	.
.	.	8g#\L	.	8cc#'\	.	.	.
.	.	8f#\J)	.	8dd#'\J	.	.	.
=92	=92	=92	=92	=92	=92	=92	=92
2.r	.	8e'\L	.	4ee\	.	2.r	.
.	.	8g#'\	.	.	.	.	.
.	.	8f#'\	.	8b'\	.	.	.
.	.	8e'\	.	8r	.	.	.
.	.	8d#'\	.	8f#'/	.	.	.
.	.	8c#'\J	.	8r	.	.	.
=93	=93	=93	=93	=93	=93	=93	=93
2.r	.	8B'/L	.	(8b\L	.	2.r	.
.	.	8A#'/	.	8cc#\J)	.	.	.
.	.	8B'/	.	8dd#'\	.	.	.
.	.	8F#'/	.	8r	.	.	.
.	.	8G#'/	.	8dd#'\	.	.	.
.	.	8A#'/J	.	8r	.	.	.
=94	=94	=94	=94	=94	=94	=94	=94
2.r	.	8B'/L	.	(8dd#\L	.	2.r	.
.	.	8B#'/	.	8ff#\J)	.	.	.
.	.	8c#'/	.	8ee'\	.	.	.
.	.	8A#'/	.	8r	.	.	.
.	.	8Bn'/	.	8dd#'\	.	.	.
.	.	8d#'/J	.	8r	.	.	.
=95	=95	=95	=95	=95	=95	=95	=95
2.r	.	8e'\L	.	8cc#'\	.	2.r	.
.	.	8c#'\	.	8r	.	.	.
.	.	8d#'\	.	8b'\	.	.	.
.	.	8f#'\	.	8r	.	.	.
.	.	8e'\	.	8cc#'\	.	.	.
.	.	8c#'\J	.	8r	.	.	.
=96	=96	=96	=96	=96	=96	=96	=96
2.r	.	8B'\L	.	(2dd#\	.	2.r	.
.	.	8f#'\	.	.	.	.	.
.	.	8b'\	.	.	.	.	.
.	.	8a#'\	.	.	.	.	.
.	.	8g#'\	.	4b\)	.	.	.
.	.	8f#'\J	.	.	.	.	.
=97	=97	=97	=97	=97	=97	=97	=97
2.r	.	8e#'\L	.	(2cc#\	.	2.r	.
.	.	8b'\	.	.	.	.	.
.	.	8f#'\	.	.	.	.	.
.	.	8an'\	.	.	.	.	.
.	.	8en'\	.	8dd#\L	.	.	.
.	.	8a'\J	.	8cc#\J)	.	.	.
=98	=98	=98	=98	=98	=98	=98	=98
4r	.	(8d#/L	<	8b'\L	.	8r	.
.	.	8A/J)	.	8b'\	<	8bb'\	p
8E'\	p	8G#'/	.	8bb'\	.	8ggg#'\L	.
8r	<	8r	.	8aa'\	.	8fff#'\	<
8BB'/	.	8F#'/	.	8gg#'\	.	8eee'\	.
8r	.	8r	.	8ff#'\J	.	8ddd#'\J	.
=99	=99	=99	=99	=99	=99	=99	=99
(8E\L	.	(8G#/L	.	8gg#'\L	.	8eee'\L	.
8F#\J)	.	8A/J)	.	8bb'\	.	8ddd#'\	.
4G#'\	.	4B'/	.	8aa'\	.	8ccc#'\	.
.	.	.	.	8gg#'\	.	8bb'\	.
[4G#\	.	[4B/	.	8ff#'\	.	8aa'\	.
.	.	.	.	8ee'\J	.	8gg#'\J	.
=100	=100	=100	=100	=100	=100	=100	=100
(8G#\L]	.	(8B/L]	.	8ee'\L	.	8gg#'\L	.
8B\J)	.	8dn/J)	.	8ee#'\	.	8gg#'\	.
4A'\	.	4c#'\	.	8ff#'\	.	8aa'\	.
.	.	.	.	8ee#'\	.	8gg#'\	.
4G#'\	.	4B'/	.	8ff#'\	.	8aa'\	.
.	.	.	.	8gg#'\J	.	8bb'\J	.
=101	=101	=101	=101	=101	=101	=101	=101
4F#'\	.	4A'/	.	8aa'\L	.	8ccc#'\L	.
.	.	.	.	8dd#'\	.	8ff#'\	.
4E'\	.	4G#'/	.	8gg#'\	.	8bb'\	.
.	.	.	.	8aa'\	.	8ccc#'\	.
4F#'\	.	4A'/	.	8gg#'\	.	8bb'\	.
.	.	.	.	8ff#'\J	.	8aa'\J	.
=102	=102	=102	=102	=102	=102	=102	=102
(2G#\	.	(2B/	.	8een'\L	.	8gg#'\L	.
.	.	.	.	8dd#'\	.	8ff#'\	.
.	.	.	.	8ee'\	.	8gg#'\	.
.	.	.	.	8ff#'\	.	8aa'\	.
4E\)	.	4G#/)	.	8gg#'\	.	8bb'\	.
.	.	.	.	8ee'\J	.	8ccc#'\J	.
=103	=103	=103	=103	=103	=103	=103	=103
(2F#\	.	(2A/	.	8dd#'\L	.	8aa'\L	.
.	.	.	.	8ee'\	.	8gg#'\	.
.	.	.	.	8ff#'\	.	8aa'\	.
.	.	.	.	8b'\	.	8bb'\	.
8G#\L	.	8B/L	.	8cc#'\	.	8ccc#'\	.
8F#\J)	.	8A/J)	.	8dd#'\J	.	8ddd#'\J	.
=104	=104	=104	=104	=104	=104	=104	=104
8E\L	.	8G#\L	.	8ee\	.	8eee\	.
8E'\	.	8g#'\	.	8r	.	8r	.
8F#'\	f	8f#'\	f	4dd#'\	.	4bb'\	.
8BB'\	.	8d#'\	.	.	.	.	.
8E'\	.	8gn'\	.	4cc#'\	f	4aa#'\	f
8E'\J	.	8f#'\J	.	.	.	.	.
=105	=105	=105	=105	=105	=105	=105	=105
8D#'\L	.	8f#'\L	.	(8dd#\L	.	(8bb\L	.
8C#'\	.	8e'\	.	8ee\J)	.	8ccc#\J)	.
8BB'\	.	8d#'\	.	4ff#'\	.	4ddd#'\	.
8E'\	.	8g#'\	.	.	.	.	.
8D#'\	.	8f#'\	.	4bb'\	.	4ddd#'\	.
8C#'\J	.	8e'\J	.	.	.	.	.
=106	=106	=106	=106	=106	=106	=106	=106
8BB'/L	.	8d#'\L	.	(8bb\L	.	(8ddd#\L	.
8FF#'/	.	8B'/	.	8ddd#\J)	.	8fff#\J)	.
8AA#'/	.	8A#'/	.	4ccc#'\	.	4eee'\	.
8FF#'/	.	8F#'/	.	.	.	.	.
8BB'/	.	8B'/	.	4bb'\	.	4ddd#'\	.
8FF#'/J	.	8F#'/J	.	.	.	.	.
=107	=107	=107	=107	=107	=107	=107	=107
8C#'\L	.	8e'\L	.	4aa#'\	.	4ccc#'\	.
8E'\	.	8g#'\	.	.	.	.	.
8D#'\	.	8f#'\	.	4gg#'\	.	4bb'\	.
8E'\	.	8g#'\	.	.	.	.	.
8D#'\	.	8f#'\	.	4aa#'\	.	4ccc#'\	.
8C#'\J	.	8e'\J	.	.	.	.	.
=108	=108	=108	=108	=108	=108	=108	=108
8BB'/L	.	8d#'/L	.	(2bb\	.	(2ddd#\	.
8AA#'/	.	8c#'/	.	.	.	.	.
8BB'/	.	8d#'/	.	.	.	.	.
8C#'/	.	8e'/	.	.	.	.	.
8D#'\	.	8f#'/	.	[4b\)	.	4bb\)	.
8BB'/J	.	8D#'/J	.	.	.	.	.
=109	=109	=109	=109	=109	=109	=109	=109
8E#'\L	.	8G#'/L	.	4b\]	.	(2ccc#\	.
8C#'\	.	8E#'/	.	.	.	.	.
8F#'\	.	8A'/	.	4an/	.	.	.
8G#'\	.	8B'/	.	.	.	.	.
8F#'\	.	8A'/	.	[4aa\	.	8ddd#\L	.
8En'\J	.	8G#'/J	.	.	.	8ccc#\J)	.
=110	=110	=110	=110	=110	=110	=110	=110
8D#/L	.	8F#/L	.	4aa\]	.	4.bb\	.
8BB/J	.	8D#/J	.	.	.	.	.
8E\	ff	4G#/	.	8gg#'\L	.	.	.
8r	.	.	.	8aa'\	.	8ccc#'\L	ff
8BB/	.	8r	.	8gg#'\	ff	8bb'\	.
8r	.	8b\	ff	8ff#'\J	.	8aa'\J	.
=111	=111	=111	=111	=111	=111	=111	=111
(8E\L	.	8b'\L	.	8ee'\L	.	8gg#'\L	.
8F#\J)	.	8a'\	.	8dd#'\	.	8ff#'\	.
4G#'\	.	8g#'\J	.	8ee'\	.	8ee'\	.
.	.	8r	.	8a'\	.	8cc#'\	.
4G#'\	.	4r	.	8g#'\	.	8b'\	.
.	.	.	.	8f#'\J	.	8a'\J	.
=112	=112	=112	=112	=112	=112	=112	=112
(8G#\L	.	4r	.	4e/	.	4g#/	.
8B\J)	.	.	.	.	.	.	.
8A'\	.	8e\	.	4r	.	4r	.
8r	.	8r	ff	.	.	.	.
8G#'\	.	8B/	.	4r	.	4r	.
8r	.	8r	.	.	.	.	.
=113	=113	=113	=113	=113	=113	=113	=113
8F#'\	.	(8e\L	.	2.r	.	2.r	.
8r	.	8f#\J)	.	.	.	.	.
8E'\	.	8g#'\	.	.	.	.	.
8r	.	8r	.	.	.	.	.
8F#'\	.	8g#'\	.	.	.	.	.
8r	.	8r	.	.	.	.	.
=114	=114	=114	=114	=114	=114	=114	=114
(2G#\	.	(8g#\L	.	2.r	.	2.r	.
.	.	8b\J)	.	.	.	.	.
.	.	8a'\	.	.	.	.	.
.	.	8r	.	.	.	.	.
4E\)	.	8g#'\	.	.	.	.	.
.	.	8r	.	.	.	.	.
=115	=115	=115	=115	=115	=115	=115	=115
(2F#\	.	8f#'\	.	2.r	.	2.r	.
.	.	8r	.	.	.	.	.
.	.	8e'\	.	.	.	.	.
.	.	8r	.	.	.	.	.
8G#\L	.	8f#'\	.	.	.	.	.
8F#\J)	.	8r	.	.	.	.	.
=116	=116	=116	=116	=116	=116	=116	=116
8E\	.	(2g#\	.	4r	.	2.r	.
8r	.	.	.	.	.	.	.
8BB/	.	.	.	8ee\	.	.	.
8r	.	.	.	8r	ff	.	.
[4E\	.	4e\)	.	8b\	.	.	.
.	.	.	.	8r	.	.	.
=117	=117	=117	=117	=117	=117	=117	=117
8E\]	.	(2f#\	.	(8ee\L	.	2.r	.
8r	.	.	.	8ff#\J)	.	.	.
8BB/	.	.	.	8gg#'\	.	.	.
8r	.	.	.	8r	.	.	.
[4E\	.	8g#\L	.	8gg#'\	.	.	.
.	.	8f#\J)	.	8r	.	.	.
=118	=118	=118	=118	=118	=118	=118	=118
8E\]	.	8e\	.	(8gg#\L	.	4r	.
8r	.	8r	.	8bb\J)	.	.	.
8BB/	.	8B/	.	8aa\	.	8eee\	ff
8r	.	8r	.	8r	.	8r	.
[4E\	.	[4e\	.	8gg#\	.	8bb\	.
.	.	.	.	8r	.	8r	.
=119	=119	=119	=119	=119	=119	=119	=119
8E\]	.	8e\]	.	8ff#\	.	(8eee\L	.
8r	.	8r	.	8r	.	8fff#\J)	.
8BB/	.	8B/	.	8ee\	.	8ggg#\	.
8r	.	8r	.	8r	.	8r	.
[4E\	.	[4e\	.	8ff#\	.	8ggg#\	.
.	.	.	.	8r	.	8r	.
=120	=120	=120	=120	=120	=120	=120	=120
4E\]	.	4e\]	.	(2gg#\	.	(8ggg#\L	.
.	.	.	.	.	.	8bbb\J)	.
4BB/	.	4B/	.	.	.	4aaa'\	.
[4E\	.	[4e\	.	4ee\)	.	4ggg#'\	.
=121	=121	=121	=121	=121	=121	=121	=121
4E\]	.	4e\]	.	(2ff#\	.	4fff#'\	.
4BB/	.	4B/	.	.	.	4eee'\	.
[4E\	.	[4e\	.	8gg#\L	.	4fff#'\	.
.	.	.	.	8ff#\J)	.	.	.
=122	=122	=122	=122	=122	=122	=122	=122
2.E\_	>	4e\]	>	4ee\	.	([4ggg#\	>
.	.	(4e\	.	4r	.	4ggg#\]	.
.	.	4B/)	p	4r	.	4eee\)	.
=123	=123	=123	=123	=123	=123	=123	=123
4E\]	p	(8e\L	.	2.r	.	(2fff#\	.
.	.	8f#\J)	.	.	.	.	.
(4e\	.	[4g#'\	.	.	.	.	.
4B\	.	4g#'\]	p	.	.	8ggg#\L	p
.	.	.	.	.	.	8fff#\J)	.
=124	=124	=124	=124	=124	=124	=124	=124
8e\L	p	(8g#\L	.	2.r	.	4eee\	.
8f#\J)	.	8a\J)	.	.	.	.	.
[4g#'\	.	[4b'\	.	.	.	(4ee\	.
4g#'\]	.	4b'\]	.	.	.	4b\)	p
=125	=125	=125	=125	=125	=125	=125	=125
(4.g#\	.	(4.b\	.	4r	.	(8ee\L	.
.	.	.	.	.	.	8ff#\J)	.
.	.	.	.	(4ee\	.	[4gg#'\	.
8f#\L	.	8a\L	.	.	.	.	.
8e\	.	8g#\	.	4b\)	p	4gg#'\]	.
8d#\J)	.	8f#\J)	.	.	.	.	.
=126	=126	=126	=126	=126	=126	=126	=126
(4c#\	.	(4e\	.	(8ee\L	.	(8gg#\L	.
.	.	.	.	8gg#\J	.	8bb\J	.
4B#\	.	4d#\	.	4ff#\	.	4aa\	.
4c#\	.	4e\	.	4ee\)	.	4gg#\)	.
=127	=127	=127	=127	=127	=127	=127	=127
4d#\	.	4f#\	.	(4dd#\	.	(4ff#\	.
4e\	.	4g#\	.	4cc#\	.	4ee\	.
4d#\)	.	4f#\)	.	4dd#\)	.	4ff#\)	.
=128	=128	=128	=128	=128	=128	=128	=128
(4c#\	.	(4e\	.	(2ee\	.	(2gg#\	.
4Bn\	.	4f#\	.	.	.	.	.
4A\	.	4gn\	.	4cc#\)	.	4ee\)	.
=129	=129	=129	=129	=129	=129	=129	=129
2.An\)	.	4a\	.	(2dd#\	.	(2ff#\	.
.	.	4f#\	.	.	.	.	.
.	.	4d#\)	.	[4b\)	.	8gg#\L	.
.	.	.	.	.	.	8ff#\J)	.
=130	=130	=130	=130	=130	=130	=130	=130
(4G#\	.	(4e\	.	4b\]	.	4ee\	.
4F#\	.	4A/	.	4r	.	4r	.
4E\	.	4G#/	.	4g#/	.	4ee\	.
=131	=131	=131	=131	=131	=131	=131	=131
4D#\	.	4F#/	.	(2a/	.	(2ff#\	.
4C#/	.	4E/	.	.	.	.	.
4D#\)	.	4F#/)	.	8b/L	.	8gg#\L	.
.	.	.	.	8a/J)	.	8ff#\J)	.
=132	=132	=132	=132	=132	=132	=132	=132
(4E\	.	(4G#/	.	4g#/	.	4ee\	.
4D#\	.	4F#/	.	4r	.	4r	.
4C#/	.	4E/	.	4G#/	.	4e/	.
=133	=133	=133	=133	=133	=133	=133	=133
2.BB/	.	4D#/	.	(2A/	.	(2f#/	.
.	.	4C#/	.	.	.	.	.
.	.	4D#/)	.	8B/L	.	8g#/L	.
.	.	.	.	8A/J)	.	8f#/J)	.
=134	=134	=134	=134	=134	=134	=134	=134
4E\)	.	(4E/	.	(4G#/	.	[4e/	.
4r	.	4G#/)	.	4B/)	.	4e/]	.
(4EE/	.	4r	.	4r	.	4r	.
=135	=135	=135	=135	=135	=135	=135	=135
2FF#/	.	4r	.	4r	.	4r	.
.	.	4A/	.	4B/	.	4d#/	.
8GG#/L	.	4r	.	4r	.	4r	.
8FF#/J	.	.	.	.	.	.	.
=136	=136	=136	=136	=136	=136	=136	=136
4EE/)	.	4r	.	4r	.	4r	.
4r	.	4G#/	.	4B/	.	4e/	.
4EE/	.	4r	.	4r	.	4r	.
=137	=137	=137	=137	=137	=137	=137	=137
(2FF#/	.	4r	.	4r	.	4r	.
.	.	4B/	.	4A/	.	4d#/	.
8GGn/L	.	4r	.	4r	.	4r	.
8FF#/J)	.	.	.	.	.	.	.
=138	=138	=138	=138	=138	=138	=138	=138
4EE/	.	4r	.	4r	>	4r	.
(8GGn/L	>	4B/	>	4Gn/	.	4e/	.
8FF#/J	.	.	.	.	.	.	.
4EE'/)	.	4r	.	4r	.	4r	>
=139	=139	=139	=139	=139	=139	=139	=139
(8GGn/L	.	4B/	.	4Gn/	.	4e/	.
8FF#/J	.	.	.	.	.	.	.
4EE'/)	.	4r	.	4r	.	4r	.
(8GGn/L	.	4Gn/	.	4B/	.	4e/	.
8FF#/J	.	.	.	.	.	.	.
=140	=140	=140	=140	=140	=140	=140	=140
4EE'/)	.	4r	.	2.r	.	4r	.
(8GGn/L	pp	(8Gn/L	pp	.	.	(8gn/L	pp
8FF#/J	.	8F#/J	.	.	.	8f#/J	.
4EE'/)	.	4E'/)	.	.	.	4e'/)	.
=141	=141	=141	=141	=141	=141	=141	=141
(8GGn/L	.	(8Gn/L	.	2.r	.	(8gn/L	.
8FF#/J	.	8F#/J	.	.	.	8f#/J	.
4EE'/)	.	4E'/)	.	.	.	4e'/)	.
(8GGn/L	.	(8Gn/L	.	.	.	(8gn/L	.
8FF#/J)	.	8F#/J)	.	.	.	8f#/J)	.
==	==	==	==	==	==	==	==
*-	*-	*-	*-	*-	*-	*-	*-
